src/assets/images/linkedin.svg

<?xml version="1.0" encoding="UTF-8"?>
<svg width="26px" height="27px" viewBox="0 0 26 27" version="1.1" xmlns="http://www.w3.org/2000/svg" xmlns:xlink="http://www.w3.org/1999/xlink">
    <!-- Generator: Sketch 41.2 (35397) - http://www.bohemiancoding.com/sketch -->
    <title>linkedin square</title>
    <desc>Created with Sketch.</desc>
    <defs></defs>
    <g id="Page-1" stroke="none" stroke-width="1" fill="none" fill-rule="evenodd">
        <g id="About" transform="translate(-1187.000000, -735.000000)" fill="#E3E3E3">
            <g id="linkedin-square" transform="translate(1187.000000, 735.000000)">
                <path d="M3.967639,22.24327 L3.967639,10.624953 L7.834831,10.624953 L7.834831,22.24327 L3.967639,22.24327 Z M8.085947,7.04236 C8.085947,8.147272 7.248893,9.05129 5.892864,9.05129 L5.876123,9.05129 C4.570318,9.05129 3.733263,8.147272 3.733263,7.04236 C3.733263,5.903965 4.6038,5.033429 5.926346,5.033429 C7.248893,5.033429 8.069206,5.903965 8.085947,7.04236 Z M17.879486,22.24327 L17.879486,16.032326 C17.879486,14.458663 17.32703,13.403974 15.937519,13.403974 C14.866089,13.403974 14.229928,14.123841 13.945329,14.810226 C13.844883,15.061342 13.828141,15.412905 13.828141,15.747727 L13.828141,22.24327 L9.960949,22.24327 C10.011173,11.713124 9.960949,10.624953 9.960949,10.624953 L13.828141,10.624953 L13.828141,12.315803 L13.794659,12.315803 C14.296892,11.512231 15.217652,10.357096 17.293547,10.357096 C19.838193,10.357096 21.746678,12.014464 21.746678,15.580316 L21.746678,22.24327 L17.879486,22.24327 Z M25.714316,5.535661 C25.714316,2.873828 23.554716,0.714227 20.892882,0.714227 L4.821434,0.714227 C2.159601,0.714227 0,2.873828 0,5.535661 L0,21.607109 C0,24.268943 2.159601,26.428543 4.821434,26.428543 L20.892882,26.428543 C23.554716,26.428543 25.714316,24.268943 25.714316,21.607109 L25.714316,5.535661 Z" id="Shape"></path>
            </g>
        </g>
    </g>
</svg>

<svg width="26" height="27" viewBox="0 0 26 27" xmlns="http://www.w3.org/2000/svg"><title>linkedin square</title><path d="M3.968 22.243V10.625h3.867v11.618H3.968zm4.118-15.2c0 1.104-.837 2.008-2.193 2.008h-.017c-1.306 0-2.143-.903-2.143-2.008 0-1.138.87-2.01 2.193-2.01s2.143.872 2.16 2.01zm9.793 15.2v-6.21c0-1.574-.553-2.63-1.942-2.63-1.072 0-1.708.72-1.993 1.407-.1.25-.117.603-.117.938v6.495H9.96c.05-10.53 0-11.618 0-11.618h3.868v1.69h-.033c.502-.803 1.423-1.958 3.5-1.958 2.543 0 4.452 1.657 4.452 5.223v6.663H17.88zm7.834-16.707c0-2.662-2.16-4.822-4.82-4.822H4.82C2.16.714 0 2.874 0 5.536v16.07c0 2.663 2.16 4.823 4.82 4.823h16.073c2.662 0 4.82-2.16 4.82-4.823V5.537z" fill="#E3E3E3" fill-rule="evenodd"/></svg>
